ix/lamp-on_linear.svg

<svg viewBox="0 0 24 24" fill="none" xmlns="http://www.w3.org/2000/svg" height="1em" width="1em">
  <path d="M8.30011 18.0399V16.8799C6.00011 15.4899 4.11011 12.7799 4.11011 9.89993C4.11011 4.94993 8.66011 1.06993 13.8001 2.18993C16.0601 2.68993 18.0401 4.18993 19.0701 6.25993C21.1601 10.4599 18.9601 14.9199 15.7301 16.8699V18.0299C15.7301 18.3199 15.8401 18.9899 14.7701 18.9899H9.26011C8.16011 18.9999 8.30011 18.5699 8.30011 18.0399Z" stroke="#292D32" stroke-width="1.5" stroke-linecap="round" stroke-linejoin="round"/>
  <path d="M8.5 22C10.79 21.35 13.21 21.35 15.5 22" stroke="#292D32" stroke-width="1.5" stroke-linecap="round" stroke-linejoin="round"/>
</svg>

<svg viewBox="0 0 24 24" fill="none" xmlns="http://www.w3.org/2000/svg" height="1em" width="1em">
  <path d="M8.3 18.04v-1.16C6 15.49 4.11 12.78 4.11 9.9c0-4.95 4.55-8.83 9.69-7.71 2.26.5 4.24 2 5.27 4.07 2.09 4.2-.11 8.66-3.34 10.61v1.16c0 .29.11.96-.96.96H9.26c-1.1.01-.96-.42-.96-.95ZM8.5 22c2.29-.65 4.71-.65 7 0" stroke="#292D32" stroke-width="1.5" stroke-linecap="round" stroke-linejoin="round"/>
</svg>
